assets/images/svg/wallet.svg

<svg width="20" height="20" viewBox="0 0 20 20" fill="none" xmlns="http://www.w3.org/2000/svg">
<path fill-rule="evenodd" clip-rule="evenodd" d="M17.583 6.67008C17.5372 6.66675 17.4863 6.66675 17.433 6.66675H15.3288C13.6055 6.66675 12.1313 8.02341 12.1313 9.79175C12.1313 11.5601 13.6063 12.9167 15.3288 12.9167H17.433C17.4863 12.9167 17.5372 12.9167 17.5847 12.9134C17.9389 12.8921 18.2732 12.7427 18.5254 12.4931C18.7776 12.2435 18.9305 11.9107 18.9555 11.5567C18.9588 11.5067 18.9588 11.4526 18.9588 11.4026V8.18092C18.9588 8.13092 18.9588 8.07675 18.9555 8.02675C18.9305 7.6728 18.7776 7.34003 18.5254 7.09043C18.2732 6.84083 17.9389 6.69144 17.5847 6.67008H17.583ZM15.143 10.6251C15.5863 10.6251 15.9455 10.2517 15.9455 9.79175C15.9455 9.33175 15.5863 8.95841 15.143 8.95841C14.6988 8.95841 14.3397 9.33175 14.3397 9.79175C14.3397 10.2517 14.6988 10.6251 15.143 10.6251Z" fill="#00162E"/>
<path fill-rule="evenodd" clip-rule="evenodd" d="M17.4315 14.1667C17.4603 14.1655 17.489 14.1712 17.5152 14.1832C17.5414 14.1952 17.5644 14.2132 17.5824 14.2358C17.6003 14.2583 17.6127 14.2848 17.6185 14.3131C17.6243 14.3413 17.6233 14.3705 17.6157 14.3983C17.449 14.9917 17.1832 15.4983 16.7573 15.9233C16.1332 16.5483 15.3423 16.8242 14.3657 16.9558C13.4157 17.0833 12.2032 17.0833 10.6715 17.0833H8.9115C7.37984 17.0833 6.1665 17.0833 5.21734 16.9558C4.24067 16.8242 3.44984 16.5475 2.82567 15.9242C2.20234 15.3 1.92567 14.5092 1.794 13.5325C1.6665 12.5825 1.6665 11.37 1.6665 9.83833V9.745C1.6665 8.21333 1.6665 7 1.794 6.05C1.92567 5.07333 2.20234 4.2825 2.82567 3.65833C3.44984 3.035 4.24067 2.75833 5.21734 2.62667C6.16734 2.5 7.37984 2.5 8.9115 2.5H10.6715C12.2032 2.5 13.4165 2.5 14.3657 2.6275C15.3423 2.75917 16.1332 3.03583 16.7573 3.65917C17.1832 4.08583 17.449 4.59167 17.6157 5.185C17.6233 5.21281 17.6243 5.24202 17.6185 5.27027C17.6127 5.29851 17.6003 5.325 17.5824 5.34757C17.5644 5.37014 17.5414 5.38816 17.5152 5.40016C17.489 5.41217 17.4603 5.41782 17.4315 5.41667H15.3282C12.964 5.41667 10.8807 7.28333 10.8807 9.79167C10.8807 12.3 12.964 14.1667 15.3282 14.1667H17.4315ZM4.7915 5.83333C4.62574 5.83333 4.46677 5.89918 4.34956 6.01639C4.23235 6.1336 4.1665 6.29257 4.1665 6.45833C4.1665 6.62409 4.23235 6.78306 4.34956 6.90027C4.46677 7.01748 4.62574 7.08333 4.7915 7.08333H8.12484C8.2906 7.08333 8.44957 7.01748 8.56678 6.90027C8.68399 6.78306 8.74984 6.62409 8.74984 6.45833C8.74984 6.29257 8.68399 6.1336 8.56678 6.01639C8.44957 5.89918 8.2906 5.83333 8.12484 5.83333H4.7915Z" fill="#00162E"/>
</svg>

<svg xmlns="http://www.w3.org/2000/svg" width="20" height="20" fill="none" viewBox="0 0 20 20"><path fill="#00162e" fill-rule="evenodd" d="M17.583 6.67q-.07-.004-.15-.003h-2.104c-1.724 0-3.198 1.356-3.198 3.125s1.475 3.125 3.198 3.125h2.104q.08.001.152-.004a1.46 1.46 0 0 0 1.37-1.356q.005-.077.004-.154V8.18q0-.077-.003-.154a1.46 1.46 0 0 0-1.371-1.357zm-2.44 3.955c.443 0 .802-.373.802-.833s-.359-.834-.802-.834-.803.374-.803.834.359.833.803.833" clip-rule="evenodd"/><path fill="#00162e" fill-rule="evenodd" d="M17.432 14.167a.183.183 0 0 1 .184.231c-.167.594-.433 1.1-.859 1.525-.624.625-1.415.901-2.391 1.033-.95.127-2.163.127-3.694.127h-1.76c-1.532 0-2.746 0-3.695-.127-.976-.132-1.767-.409-2.391-1.032-.624-.624-.9-1.415-1.032-2.391-.127-.95-.127-2.163-.127-3.695v-.093c0-1.532 0-2.745.127-3.695.132-.977.408-1.767 1.032-2.392.624-.623 1.415-.9 2.391-1.031C6.167 2.5 7.38 2.5 8.912 2.5h1.76c1.531 0 2.744 0 3.694.127.976.132 1.767.409 2.391 1.032.426.427.692.933.859 1.526a.183.183 0 0 1-.184.232h-2.104c-2.364 0-4.447 1.866-4.447 4.375s2.083 4.375 4.447 4.375zM4.791 5.833a.625.625 0 0 0 0 1.25h3.333a.625.625 0 0 0 0-1.25z" clip-rule="evenodd"/></svg>
